X:208
T:Reel 208
M:4/4
K:Gmaj
L:1/8
d>c (3BAB d>G (3BAB |e>A (3AGA B>G (3GAA |e>A (3BAA e>f (3AAA |e>A (3AAA e2fg|e>A (3AAA e>A (3AAA |e>A (3AAA e>A (3AAA |e>A (3AAA e>A (3AGA |e>A (3AAA e2:|d2|g2fg fed2|eaag agfg|f>A (3AAA a>A (3AAA |eaab gfgeg:||2g2 (3gfe f2g2|f>g (3fgf g2fd|efge dBAG|A>A (3AGA BG|
